symbols/web/bubble_chart/materialsymbolsoutlined/bubble_chart_gradN25_24px.svg

<svg xmlns="http://www.w3.org/2000/svg" height="24" width="24"><path d="M7.125 17.85q-1.6 0-2.737-1.138-1.138-1.137-1.138-2.737t1.138-2.737Q5.525 10.1 7.125 10.1t2.738 1.138Q11 12.375 11 13.975t-1.137 2.737Q8.725 17.85 7.125 17.85Zm0-1.875q.825 0 1.412-.588.588-.587.588-1.412t-.588-1.413q-.587-.587-1.412-.587t-1.412.587q-.588.588-.588 1.413 0 .825.588 1.412.587.588 1.412.588Zm9.3-2.1q-2.225 0-3.762-1.538-1.538-1.537-1.538-3.762t1.538-3.763q1.537-1.537 3.762-1.537t3.763 1.537q1.537 1.538 1.537 3.763 0 2.225-1.537 3.762-1.538 1.538-3.763 1.538Zm-1.975 6.85q-1.175 0-2.025-.85-.85-.85-.85-2.025 0-1.2.85-2.038.85-.837 2.025-.837 1.2 0 2.038.837.837.838.837 2.038 0 1.175-.837 2.025-.838.85-2.038.85ZM16.425 12q1.45 0 2.438-.988.987-.987.987-2.437 0-1.45-.987-2.438-.988-.987-2.438-.987-1.45 0-2.437.987Q13 7.125 13 8.575q0 1.45.988 2.437.987.988 2.437.988Zm-1.975 6.85q.425 0 .713-.288.287-.287.287-.712t-.287-.712q-.288-.288-.713-.288t-.712.288q-.288.287-.288.712t.288.712q.287.288.712.288Zm1.975-10.275Zm-9.3 5.4Zm7.325 3.875Z"/></svg>

<svg xmlns="http://www.w3.org/2000/svg" height="24" width="24"><path d="M7.125 17.85Q5.525 17.85 4.388 16.712Q3.25 15.575 3.25 13.975Q3.25 12.375 4.388 11.238Q5.525 10.1 7.125 10.1Q8.725 10.1 9.863 11.238Q11 12.375 11 13.975Q11 15.575 9.863 16.712Q8.725 17.85 7.125 17.85ZM7.125 15.975Q7.95 15.975 8.537 15.387Q9.125 14.8 9.125 13.975Q9.125 13.15 8.537 12.562Q7.95 11.975 7.125 11.975Q6.3 11.975 5.713 12.562Q5.125 13.15 5.125 13.975Q5.125 14.8 5.713 15.387Q6.3 15.975 7.125 15.975ZM16.425 13.875Q14.2 13.875 12.663 12.337Q11.125 10.8 11.125 8.575Q11.125 6.35 12.663 4.812Q14.2 3.275 16.425 3.275Q18.65 3.275 20.188 4.812Q21.725 6.35 21.725 8.575Q21.725 10.8 20.188 12.337Q18.65 13.875 16.425 13.875ZM14.45 20.725Q13.275 20.725 12.425 19.875Q11.575 19.025 11.575 17.85Q11.575 16.65 12.425 15.812Q13.275 14.975 14.45 14.975Q15.65 14.975 16.488 15.812Q17.325 16.65 17.325 17.85Q17.325 19.025 16.488 19.875Q15.65 20.725 14.45 20.725ZM16.425 12Q17.875 12 18.863 11.012Q19.85 10.025 19.85 8.575Q19.85 7.125 18.863 6.137Q17.875 5.15 16.425 5.15Q14.975 5.15 13.988 6.137Q13 7.125 13 8.575Q13 10.025 13.988 11.012Q14.975 12 16.425 12ZM14.45 18.85Q14.875 18.85 15.163 18.562Q15.45 18.275 15.45 17.85Q15.45 17.425 15.163 17.138Q14.875 16.85 14.45 16.85Q14.025 16.85 13.738 17.138Q13.45 17.425 13.45 17.85Q13.45 18.275 13.738 18.562Q14.025 18.85 14.45 18.85ZM16.425 8.575Q16.425 8.575 16.425 8.575Q16.425 8.575 16.425 8.575Q16.425 8.575 16.425 8.575Q16.425 8.575 16.425 8.575Q16.425 8.575 16.425 8.575Q16.425 8.575 16.425 8.575Q16.425 8.575 16.425 8.575Q16.425 8.575 16.425 8.575ZM7.125 13.975Q7.125 13.975 7.125 13.975Q7.125 13.975 7.125 13.975Q7.125 13.975 7.125 13.975Q7.125 13.975 7.125 13.975Q7.125 13.975 7.125 13.975Q7.125 13.975 7.125 13.975Q7.125 13.975 7.125 13.975Q7.125 13.975 7.125 13.975ZM14.45 17.85Q14.45 17.85 14.45 17.85Q14.45 17.85 14.45 17.85Q14.45 17.85 14.45 17.85Q14.45 17.85 14.45 17.85Q14.45 17.85 14.45 17.85Q14.45 17.85 14.45 17.85Q14.45 17.85 14.45 17.85Q14.45 17.85 14.45 17.85Z"/></svg>
